X:1 
T:Johnny Gallagher
Z:Hammond Dt 723
S:Robert White, Dorchester, Dorset.  December 1906
B:The Foggy Dew, Ed Frank Purslow, 1974
F:http://www.folkinfo.org/songs
M:3/4
L:1/8   
K:D
D3/2E/ |F2 B2 c2 |d2 F2 A2 |E2 D2 D2 |
w:As_ I was a-walk-ing to New-ry one 
D4 B/c/ z |d2 d3 B |cB A2 B2 |A2 D2 E2 |
w:day, I- met Ser-geant Kel--ly by chance on the 
F4 A2 |d2 d3 B |cB A2 B2 |A2 D2 E2 |
w:way. Says he, "John-ny Gal-lag-her, will you come a-
F4 D3/2E/ |F2 B2 c2 |d2 F2 E2 |E2 D2 D2 |
w:long, To the sweet town of New-ry for to take a 
D4 z2 |]
w:dram?"